X:361
T: MEIN KNAPPE WIE KOMMST DU
N: F0638
O: Europa, Mitteleuropa, Deutschland
R: Soldaten -, Ritter -, Helden - Lied
M: 6/8
L: 1/8
K: Eb
B, | EGBEGB | eecB2
B | GBAGFE | B3z2
B, | EGBEGB | eecB2
B | GBAGFE | B3z2
B | B2FFBd | B3F2
B | B2FFBd | B3F2
B | GBGFAF | E3
edc | BcBAGF | E3z2

@@@ Tune index: 5792
